; generated by Slic3r 0.9.10-dev on 2013-04-03 at 16:56:30

; layer_height = 0.25
; perimeters = 3
; top_solid_layers = 3
; bottom_solid_layers = 3
; fill_density = 0.3
; perimeter_speed = 30
; infill_speed = 60
; travel_speed = 130
; nozzle_diameter = 0.5
; filament_diameter = 3.02
; extrusion_multiplier = 0.88
; perimeters extrusion width = 0.84mm
; infill extrusion width = 0.84mm
; solid infill extrusion width = 0.84mm
; top infill extrusion width = 0.84mm
; first layer extrusion width = 0.50mm

G21 ; set units to millimeters
M107
G28                 ; home all axes
G92 E0 ;reset extruder
G1 E3 F1200 ;Prime extruder 3mm
G92 E0 ;reset extruder
M106 S255 ;fan 100%
G90 ; use absolute coordinates
G92 E0
M82 ; use absolute distances for extrusion
G1 F1800.000 E-1.00000
G92 E0
G1 Z0.250 F7800.000
G1 X26.390 Y19.820
G1 F1800.000 E1.00000
G1 X26.820 Y19.320 F540.000 E1.01013
G1 X27.150 Y19.020 E1.01698
G1 X27.500 Y18.760 E1.02367
G1 X27.880 Y18.530 E1.03049
G1 X28.480 Y18.260 E1.04060
G1 X28.910 Y18.130 E1.04749
G1 X29.560 Y18.020 E1.05762
G1 X30.000 Y18.000 E1.06438
G1 X160.000 Y18.000 E3.06071
G1 X160.440 Y18.020 E3.06748
G1 X161.090 Y18.130 E3.07760
G1 X161.310 Y18.190 E3.08110
G1 X161.720 Y18.340 E3.08780
G1 X162.120 Y18.530 E3.09461
G1 X162.500 Y18.760 E3.10143
G1 X162.850 Y19.020 E3.10812
G1 X163.180 Y19.320 E3.11497
G1 X163.480 Y19.650 E3.12182
G1 X163.740 Y20.000 E3.12851
G1 X163.970 Y20.380 E3.13534
G1 X164.160 Y20.780 E3.14214
G1 X164.240 Y20.980 E3.14544
G1 X164.370 Y21.410 E3.15234
G1 X164.480 Y22.060 E3.16247
G1 X164.500 Y22.500 E3.16923
G1 X164.500 Y152.500 E5.16556
G1 X164.480 Y152.940 E5.17232
G1 X164.370 Y153.590 E5.18245
G1 X164.310 Y153.810 E5.18595
G1 X164.160 Y154.220 E5.19265
G1 X163.970 Y154.620 E5.19945
G1 X163.740 Y155.000 E5.20627
G1 X163.480 Y155.350 E5.21297
G1 X163.180 Y155.680 E5.21982
G1 X162.850 Y155.980 E5.22667
G1 X162.500 Y156.240 E5.23336
G1 X162.120 Y156.470 E5.24018
G1 X161.720 Y156.660 E5.24698
G1 X161.520 Y156.740 E5.25029
G1 X161.090 Y156.870 E5.25719
G1 X160.440 Y156.980 E5.26731
G1 X160.000 Y157.000 E5.27408
G1 X30.000 Y157.000 E7.27041
G1 X29.560 Y156.980 E7.27717
G1 X28.910 Y156.870 E7.28729
G1 X28.690 Y156.810 E7.29080
G1 X28.280 Y156.660 E7.29750
G1 X27.880 Y156.470 E7.30430
G1 X27.500 Y156.240 E7.31112
G1 X27.150 Y155.980 E7.31782
G1 X26.820 Y155.680 E7.32467
G1 X26.520 Y155.350 E7.33151
G1 X26.260 Y155.000 E7.33821
G1 X26.030 Y154.620 E7.34503
G1 X25.840 Y154.220 E7.35183
G1 X25.760 Y154.020 E7.35514
G1 X25.630 Y153.590 E7.36204
G1 X25.520 Y152.940 E7.37216
G1 X25.500 Y152.500 E7.37892
G1 X25.500 Y22.500 E9.37525
G1 X25.520 Y22.060 E9.38202
G1 X25.550 Y21.840 E9.38543
G1 X25.690 Y21.190 E9.39564
G1 X25.840 Y20.780 E9.40234
G1 X26.030 Y20.380 E9.40914
G1 X26.346 Y19.881 E9.41822
G1 X26.820 Y19.320 F7800.000 E9.24878
G1 X27.150 Y19.020 E9.14586
G1 X27.500 Y18.760 E9.04524
G1 X27.880 Y18.530 E8.94274
G1 X28.480 Y18.260 E8.79091
G1 X28.910 Y18.130 E8.68724
G1 X29.560 Y18.020 E8.53511
G1 X30.000 Y18.000 E8.43346
G1 X30.066 Y18.000 E8.41822
G92 E0
G1 X151.250 Y143.750
G1 F1800.000 E1.00000
G1 X158.750 Y143.750 F540.000 E1.11517
G1 X158.750 Y151.250 E1.23035
G1 X151.250 Y151.250 E1.34552
G1 X151.250 Y143.825 E1.45954
G1 X150.750 Y143.250 F7800.000
G1 X159.250 Y143.250 F540.000 E1.59007
G1 X159.250 Y151.750 E1.72060
G1 X150.750 Y151.750 E1.85113
G1 X150.750 Y143.325 E1.98051
G1 X150.250 Y142.750 F7800.000
G1 X159.750 Y142.750 F540.000 E2.12639
G1 X159.750 Y152.250 E2.27228
G1 X150.250 Y152.250 E2.41816
G1 X150.250 Y142.825 E2.56290
G1 X150.683 Y143.000 F7800.000
G1 X155.015 Y142.881 E1.56290
G92 E0
G1 X98.750 Y91.250
G1 F1800.000 E1.00000
G1 X91.250 Y91.250 F540.000 E1.11517
G1 X91.250 Y83.750 E1.23035
G1 X98.750 Y83.750 E1.34552
G1 X98.750 Y91.175 E1.45954
G1 X99.250 Y91.750 F7800.000
G1 X90.750 Y91.750 F540.000 E1.59007
G1 X90.750 Y83.250 E1.72060
G1 X99.250 Y83.250 E1.85113
G1 X99.250 Y91.675 E1.98051
G1 X99.750 Y92.250 F7800.000
G1 X90.250 Y92.250 F540.000 E2.12639
G1 X90.250 Y82.750 E2.27228
G1 X99.750 Y82.750 E2.41816
G1 X99.750 Y92.175 E2.56290
G1 X99.317 Y92.000 F7800.000
G1 X94.985 Y92.119 E1.56290
G92 E0
G1 X38.750 Y143.750
G1 F1800.000 E1.00000
G1 X38.750 Y151.250 F540.000 E1.11517
G1 X31.250 Y151.250 E1.23035
G1 X31.250 Y143.750 E1.34552
G1 X38.675 Y143.750 E1.45954
G1 X39.250 Y143.250 F7800.000
G1 X39.250 Y151.750 F540.000 E1.59007
G1 X30.750 Y151.750 E1.72060
G1 X30.750 Y143.250 E1.85113
G1 X39.175 Y143.250 E1.98051
G1 X39.750 Y142.750 F7800.000
G1 X39.750 Y152.250 F540.000 E2.12639
G1 X30.250 Y152.250 E2.27228
G1 X30.250 Y142.750 E2.41816
G1 X39.675 Y142.750 E2.56290
G1 X39.500 Y143.183 F7800.000
G1 X39.619 Y147.515 E1.56290
G92 E0
G1 X38.750 Y31.250
G1 F1800.000 E1.00000
G1 X31.250 Y31.250 F540.000 E1.11517
G1 X31.250 Y23.750 E1.23035
G1 X38.750 Y23.750 E1.34552
G1 X38.750 Y31.175 E1.45954
G1 X39.250 Y31.750 F7800.000
G1 X30.750 Y31.750 F540.000 E1.59007
G1 X30.750 Y23.250 E1.72060
G1 X39.250 Y23.250 E1.85113
G1 X39.250 Y31.675 E1.98051
G1 X39.750 Y32.250 F7800.000
G1 X30.250 Y32.250 F540.000 E2.12639
G1 X30.250 Y22.750 E2.27228
G1 X39.750 Y22.750 E2.41816
G1 X39.750 Y32.175 E2.56290
G1 X39.317 Y32.000 F7800.000
G1 X34.985 Y32.119 E1.56290
G92 E0
G1 X151.250 Y31.250
G1 F1800.000 E1.00000
G1 X151.250 Y23.750 F540.000 E1.11517
G1 X158.750 Y23.750 E1.23035
G1 X158.750 Y31.250 E1.34552
G1 X151.325 Y31.250 E1.45954
G1 X150.750 Y31.750 F7800.000
G1 X150.750 Y23.250 F540.000 E1.59007
G1 X159.250 Y23.250 E1.72060
G1 X159.250 Y31.750 E1.85113
G1 X150.825 Y31.750 E1.98051
G1 X150.250 Y32.250 F7800.000
G1 X150.250 Y22.750 F540.000 E2.12639
G1 X159.750 Y22.750 E2.27228
G1 X159.750 Y32.250 E2.41816
G1 X150.325 Y32.250 E2.56290
G1 X150.500 Y31.817 F7800.000
G1 X150.381 Y27.485 E1.56290
G92 E0
G1 X38.388 Y144.113
G1 F1800.000 E1.00000
G1 X37.674 Y144.112 F1080.000 E1.01105
G1 X38.388 Y144.826 E1.02667
G1 X38.388 Y145.539 E1.03772
G1 X36.961 Y144.112 E1.06896
G1 X36.248 Y144.112 E1.08001
G1 X38.388 Y146.252 E1.12688
G1 X38.388 Y146.965 E1.13792
G1 X35.535 Y144.112 E1.20041
G1 X34.822 Y144.112 E1.21145
G1 X38.388 Y147.678 E1.28956
G1 X38.388 Y148.392 E1.30061
G1 X34.108 Y144.112 E1.39433
G1 X33.395 Y144.112 E1.40538
G1 X38.388 Y149.105 E1.51473
G1 X38.388 Y149.818 E1.52577
G1 X32.682 Y144.112 E1.65074
G1 X31.969 Y144.112 E1.66179
G1 X38.388 Y150.531 E1.80238
G1 X38.031 Y150.888 E1.81019
G1 X31.612 Y144.469 E1.95078
G1 X31.612 Y145.182 E1.96182
G1 X37.318 Y150.888 E2.08679
G1 X36.605 Y150.888 E2.09783
G1 X31.612 Y145.895 E2.20718
G1 X31.612 Y146.608 E2.21823
G1 X35.892 Y150.888 E2.31196
G1 X35.178 Y150.888 E2.32300
G1 X31.612 Y147.322 E2.40111
G1 X31.612 Y148.035 E2.41215
G1 X34.465 Y150.888 E2.47464
G1 X33.752 Y150.888 E2.48569
G1 X31.612 Y148.748 E2.53255
G1 X31.612 Y149.461 E2.54360
G1 X33.039 Y150.888 E2.57484
G1 X32.326 Y150.888 E2.58589
G1 X31.612 Y150.174 E2.60151
G1 X31.613 Y150.888 E2.61256
G1 X31.612 Y150.174 F7800.000 E2.44794
G1 X32.326 Y150.888 E2.21513
G1 X33.039 Y150.888 E2.05055
G1 X31.697 Y149.546 E1.61256
G92 E0
G1 X91.613 Y90.888
G1 F1800.000 E1.00000
G1 X91.612 Y90.174 F1080.000 E1.01105
G1 X92.326 Y90.888 E1.02667
G1 X93.039 Y90.888 E1.03772
G1 X91.612 Y89.461 E1.06896
G1 X91.612 Y88.748 E1.08001
G1 X93.752 Y90.888 E1.12688
G1 X94.465 Y90.888 E1.13792
G1 X91.612 Y88.035 E1.20041
G1 X91.612 Y87.322 E1.21145
G1 X95.178 Y90.888 E1.28956
G1 X95.892 Y90.888 E1.30061
G1 X91.612 Y86.608 E1.39433
G1 X91.612 Y85.895 E1.40538
G1 X96.605 Y90.888 E1.51473
G1 X97.318 Y90.888 E1.52577
G1 X91.612 Y85.182 E1.65074
G1 X91.612 Y84.469 E1.66179
G1 X98.031 Y90.888 E1.80238
G1 X98.388 Y90.531 E1.81019
G1 X91.969 Y84.112 E1.95077
G1 X92.682 Y84.112 E1.96182
G1 X98.388 Y89.818 E2.08679
G1 X98.388 Y89.105 E2.09783
G1 X93.395 Y84.112 E2.20718
G1 X94.108 Y84.112 E2.21823
G1 X98.388 Y88.392 E2.31196
G1 X98.388 Y87.678 E2.32300
G1 X94.822 Y84.112 E2.40111
G1 X95.535 Y84.112 E2.41215
G1 X98.388 Y86.965 E2.47464
G1 X98.388 Y86.252 E2.48569
G1 X96.248 Y84.112 E2.53255
G1 X96.961 Y84.112 E2.54360
G1 X98.388 Y85.539 E2.57484
G1 X98.388 Y84.826 E2.58589
G1 X97.674 Y84.112 E2.60151
G1 X98.388 Y84.113 E2.61256
G1 X97.674 Y84.112 F7800.000 E2.44794
G1 X98.388 Y84.826 E2.21513
G1 X98.388 Y85.539 E2.05055
G1 X97.046 Y84.197 E1.61256
G92 E0
G1 X151.613 Y30.888
G1 F1800.000 E1.00000
G1 X151.612 Y30.174 F1080.000 E1.01105
G1 X152.326 Y30.888 E1.02667
G1 X153.039 Y30.888 E1.03772
G1 X151.612 Y29.461 E1.06896
G1 X151.612 Y28.748 E1.08001
G1 X153.752 Y30.888 E1.12688
G1 X154.465 Y30.888 E1.13792
G1 X151.612 Y28.035 E1.20041
G1 X151.612 Y27.322 E1.21145
G1 X155.178 Y30.888 E1.28956
G1 X155.892 Y30.888 E1.30061
G1 X151.612 Y26.608 E1.39433
G1 X151.612 Y25.895 E1.40538
G1 X156.605 Y30.888 E1.51473
G1 X157.318 Y30.888 E1.52577
G1 X151.612 Y25.182 E1.65074
G1 X151.612 Y24.469 E1.66179
G1 X158.031 Y30.888 E1.80238
G1 X158.388 Y30.531 E1.81019
G1 X151.969 Y24.112 E1.95077
G1 X152.682 Y24.112 E1.96182
G1 X158.388 Y29.818 E2.08679
G1 X158.388 Y29.105 E2.09783
G1 X153.395 Y24.112 E2.20718
G1 X154.108 Y24.112 E2.21823
G1 X158.388 Y28.392 E2.31196
G1 X158.388 Y27.678 E2.32300
G1 X154.822 Y24.112 E2.40111
G1 X155.535 Y24.112 E2.41215
G1 X158.388 Y26.965 E2.47464
G1 X158.388 Y26.252 E2.48569
G1 X156.248 Y24.112 E2.53255
G1 X156.961 Y24.112 E2.54360
G1 X158.388 Y25.539 E2.57484
G1 X158.388 Y24.826 E2.58589
G1 X157.674 Y24.112 E2.60151
G1 X158.388 Y24.113 E2.61256
G1 X157.674 Y24.112 F7800.000 E2.44794
G1 X158.388 Y24.826 E2.21513
G1 X158.388 Y25.539 E2.05055
G1 X157.046 Y24.197 E1.61256
G92 E0
G1 X38.388 Y24.113
G1 F1800.000 E1.00000
G1 X37.674 Y24.112 F1080.000 E1.01105
G1 X38.388 Y24.826 E1.02667
G1 X38.388 Y25.539 E1.03772
G1 X36.961 Y24.112 E1.06896
G1 X36.248 Y24.112 E1.08001
G1 X38.388 Y26.252 E1.12688
G1 X38.388 Y26.965 E1.13792
G1 X35.535 Y24.112 E1.20041
G1 X34.822 Y24.112 E1.21145
G1 X38.388 Y27.678 E1.28956
G1 X38.388 Y28.392 E1.30061
G1 X34.108 Y24.112 E1.39433
G1 X33.395 Y24.112 E1.40538
G1 X38.388 Y29.105 E1.51473
G1 X38.388 Y29.818 E1.52577
G1 X32.682 Y24.112 E1.65074
G1 X31.969 Y24.112 E1.66179
G1 X38.388 Y30.531 E1.80238
G1 X38.031 Y30.888 E1.81019
G1 X31.612 Y24.469 E1.95078
G1 X31.612 Y25.182 E1.96182
G1 X37.318 Y30.888 E2.08679
G1 X36.605 Y30.888 E2.09783
G1 X31.612 Y25.895 E2.20718
G1 X31.612 Y26.608 E2.21823
G1 X35.892 Y30.888 E2.31196
G1 X35.178 Y30.888 E2.32300
G1 X31.612 Y27.322 E2.40111
G1 X31.612 Y28.035 E2.41215
G1 X34.465 Y30.888 E2.47464
G1 X33.752 Y30.888 E2.48569
G1 X31.612 Y28.748 E2.53255
G1 X31.612 Y29.461 E2.54360
G1 X33.039 Y30.888 E2.57484
G1 X32.326 Y30.888 E2.58589
G1 X31.612 Y30.174 E2.60151
G1 X31.613 Y30.888 E2.61256
G1 X31.612 Y30.174 F7800.000 E2.44794
G1 X32.326 Y30.888 E2.21513
G1 X33.039 Y30.888 E2.05055
G1 X31.697 Y29.546 E1.61256
G92 E0
G1 X151.613 Y150.888
G1 F1800.000 E1.00000
G1 X151.612 Y150.174 F1080.000 E1.01105
G1 X152.326 Y150.888 E1.02667
G1 X153.039 Y150.888 E1.03772
G1 X151.612 Y149.461 E1.06896
G1 X151.612 Y148.748 E1.08001
G1 X153.752 Y150.888 E1.12688
G1 X154.465 Y150.888 E1.13792
G1 X151.612 Y148.035 E1.20041
G1 X151.612 Y147.322 E1.21145
G1 X155.178 Y150.888 E1.28956
G1 X155.892 Y150.888 E1.30061
G1 X151.612 Y146.608 E1.39433
G1 X151.612 Y145.895 E1.40538
G1 X156.605 Y150.888 E1.51473
G1 X157.318 Y150.888 E1.52577
G1 X151.612 Y145.182 E1.65074
G1 X151.612 Y144.469 E1.66179
G1 X158.031 Y150.888 E1.80238
G1 X158.388 Y150.531 E1.81019
G1 X151.969 Y144.112 E1.95077
G1 X152.682 Y144.112 E1.96182
G1 X158.388 Y149.818 E2.08679
G1 X158.388 Y149.105 E2.09783
G1 X153.395 Y144.112 E2.20718
G1 X154.108 Y144.112 E2.21823
G1 X158.388 Y148.392 E2.31196
G1 X158.388 Y147.678 E2.32300
G1 X154.822 Y144.112 E2.40111
G1 X155.535 Y144.112 E2.41215
G1 X158.388 Y146.965 E2.47464
G1 X158.388 Y146.252 E2.48569
G1 X156.248 Y144.112 E2.53255
G1 X156.961 Y144.112 E2.54360
G1 X158.388 Y145.539 E2.57484
G1 X158.388 Y144.826 E2.58589
G1 X157.674 Y144.112 E2.60151
G1 X158.388 Y144.113 E2.61256
M106 S255
G1 X157.674 Y144.112 F3953.446 E2.44794
G1 X158.388 Y144.826 E2.21513
G1 X158.388 Y145.539 E2.05055
G1 X157.046 Y144.197 E1.61256
G92 E0
G1 Z0.500
G1 X38.037 Y144.463
G1 F1800.000 E1.00000
G1 X38.037 Y150.537 F912.334 E1.14649
G1 X31.963 Y150.537 E1.29298
G1 X31.963 Y144.463 E1.43947
G1 X37.919 Y144.463 E1.58312
G1 X38.822 Y143.678 F7800.000
G1 X38.822 Y151.322 F912.334 E1.76751
G1 X31.178 Y151.322 E1.95189
G1 X31.178 Y143.678 E2.13627
G1 X38.704 Y143.678 E2.31781
G1 X39.607 Y142.893 F7800.000
G1 X39.607 Y152.107 F912.334 E2.54008
G1 X30.393 Y152.107 E2.76235
G1 X30.393 Y142.893 E2.98463
G1 X39.489 Y142.893 E3.20406
G1 X39.215 Y143.573 F7800.000
G1 X39.414 Y147.902 E2.20406
G92 E0
G1 X151.963 Y144.463
G1 F1800.000 E1.00000
G1 X158.037 Y144.463 F912.334 E1.14649
G1 X158.037 Y150.537 E1.29298
G1 X151.963 Y150.537 E1.43947
G1 X151.963 Y144.581 E1.58312
G1 X151.178 Y143.678 F7800.000
G1 X158.822 Y143.678 F912.334 E1.76751
G1 X158.822 Y151.322 E1.95189
G1 X151.178 Y151.322 E2.13627
G1 X151.178 Y143.796 E2.31781
G1 X150.393 Y142.893 F7800.000
G1 X159.607 Y142.893 F912.334 E2.54008
G1 X159.607 Y152.107 E2.76236
G1 X150.393 Y152.107 E2.98463
G1 X150.393 Y143.011 E3.20406
G1 X151.073 Y143.285 F7800.000
G1 X155.402 Y143.086 E2.20406
G92 E0
G1 X151.963 Y30.537
G1 F1800.000 E1.00000
G1 X151.963 Y24.463 F912.334 E1.14649
G1 X158.037 Y24.463 E1.29298
G1 X158.037 Y30.537 E1.43947
G1 X152.081 Y30.537 E1.58312
G1 X151.178 Y31.322 F7800.000
G1 X151.178 Y23.678 F912.334 E1.76751
G1 X158.822 Y23.678 E1.95189
G1 X158.822 Y31.322 E2.13627
G1 X151.296 Y31.322 E2.31781
G1 X150.393 Y32.107 F7800.000
G1 X150.393 Y22.893 F912.334 E2.54008
G1 X159.607 Y22.893 E2.76236
G1 X159.607 Y32.107 E2.98463
G1 X150.511 Y32.107 E3.20406
G1 X150.785 Y31.427 F7800.000
G1 X150.586 Y27.098 E2.20406
G92 E0
G1 X38.037 Y30.537
G1 F1800.000 E1.00000
G1 X31.963 Y30.537 F912.334 E1.14649
G1 X31.963 Y24.463 E1.29298
G1 X38.037 Y24.463 E1.43947
G1 X38.037 Y30.419 E1.58312
G1 X38.822 Y31.322 F7800.000
G1 X31.178 Y31.322 F912.334 E1.76751
G1 X31.178 Y23.678 E1.95189
G1 X38.822 Y23.678 E2.13627
G1 X38.822 Y31.204 E2.31781
G1 X39.607 Y32.107 F7800.000
G1 X30.393 Y32.107 F912.334 E2.54008
G1 X30.393 Y22.893 E2.76235
G1 X39.607 Y22.893 E2.98463
G1 X39.607 Y31.989 E3.20406
G1 X38.927 Y31.715 F7800.000
G1 X34.598 Y31.914 E2.20406
G92 E0
G1 X32.533 Y145.033
G1 F1800.000 E1.00000
G1 X33.767 Y145.033 F1520.556 E1.03305
G1 X32.533 Y146.267 E1.07979
G1 X32.533 Y147.500 E1.11284
G1 X35.000 Y145.033 E1.20632
G1 X36.234 Y145.033 E1.23936
G1 X32.533 Y148.734 E1.37957
G1 X32.533 Y149.967 E1.41262
G1 X37.467 Y145.033 E1.59955
G1 X37.467 Y146.266 E1.63260
G1 X33.766 Y149.967 E1.77281
G1 X35.000 Y149.967 E1.80585
G1 X37.467 Y147.500 E1.89933
G1 X37.467 Y148.733 E1.93238
G1 X36.233 Y149.967 E1.97912
G1 X37.467 Y149.967 E2.01217
G1 X36.233 Y149.967 F3953.446 E1.72746
G1 X37.467 Y148.733 E1.32481
G1 X37.467 Y147.500 E1.04015
G1 X37.381 Y147.586 E1.01217
G92 E0
G1 X37.467 Y29.967
G1 F1800.000 E1.00000
G1 X36.233 Y29.967 F1520.556 E1.03305
G1 X37.467 Y28.733 E1.07979
G1 X37.467 Y27.500 E1.11284
G1 X35.000 Y29.967 E1.20632
G1 X33.766 Y29.967 E1.23936
G1 X37.467 Y26.266 E1.37957
G1 X37.467 Y25.033 E1.41262
G1 X32.533 Y29.967 E1.59955
G1 X32.533 Y28.734 E1.63260
G1 X36.234 Y25.033 E1.77281
G1 X35.000 Y25.033 E1.80585
G1 X32.533 Y27.500 E1.89933
G1 X32.533 Y26.267 E1.93238
G1 X33.767 Y25.033 E1.97912
G1 X32.533 Y25.033 E2.01217
G1 X33.767 Y25.033 F3953.446 E1.72746
G1 X32.533 Y26.267 E1.32481
G1 X32.533 Y27.500 E1.04015
G1 X32.619 Y27.414 E1.01217
G92 E0
G1 X152.533 Y25.033
G1 F1800.000 E1.00000
G1 X153.767 Y25.033 F1520.556 E1.03305
G1 X152.533 Y26.267 E1.07979
G1 X152.533 Y27.500 E1.11284
G1 X155.000 Y25.033 E1.20632
G1 X156.234 Y25.033 E1.23936
G1 X152.533 Y28.734 E1.37957
G1 X152.533 Y29.967 E1.41262
G1 X157.467 Y25.033 E1.59955
G1 X157.467 Y26.266 E1.63260
G1 X153.766 Y29.967 E1.77281
G1 X155.000 Y29.967 E1.80585
G1 X157.467 Y27.500 E1.89933
G1 X157.467 Y28.733 E1.93238
G1 X156.233 Y29.967 E1.97912
G1 X157.467 Y29.967 E2.01217
G1 X156.233 Y29.967 F3953.446 E1.72746
G1 X157.467 Y28.733 E1.32481
G1 X157.467 Y27.500 E1.04015
